!!!COM: Ludwig van Beethoven
!!!CNT: Deutsch
!!!TXO: Deutsch
!!!OTL: "Wonne der Wehmut"
!!!LYR: Goethe, Johann Wolfgang
!!!OPS: Op. 83
!!!ONM: No. 1
!!!ENC: Amanda Harris
!!!YOR: Sa2mtliche Lieder, Band 2
!!!YOR: G. Henle Verlag
!!!ODT: 1810/
!!NB: Vocal melody and text encoded.
**kern	**silbe
*clefG2	*
*k[f#c#g#d#]	*
*M2/4	*
*MM[andante espressivo]	*
=1	=1
{16.g#	{Trock-
32g#	-net
16b	nicht,
16a	|
4r	.
=2	=2
16.a	trock-
32a#	-net
16cc#	nicht,
16b	|
4r	.
=3	=3
8cc#	Tra2-
16dd#	-nen
16ee	der
8ee	e-
16cc#	-wi-
16an	-gen
=4	=4
8.g#	Lie-
32b	|
32a	|
8f#}	-be!}
8r	.
=5	=5
4r	.
{16.a	{Trock-
32a	-net
8a	nicht!
=6	=6
4r	.
8b	Ach!
16b	nur
16cc#	dem
=7	=7
8b	halb-
16a#	|
16g#	-ge-
8g#	-trock-
16f#	-net-
16e	-en
=8	=8
8e	Au-
16d#	-ge,
16d#	wie
16b	o2-
16an	-de,
16r	.
16an	wie
=9	=9
8.gn	tot
16gn	die
8gn	Welt
16gn	ihm
16gn	er-
=10	=10
8gn}	-scheint!}
8r	.
4r	.
=11	=11
4r	.
{16.b	{Trock-
32b	-net
8b	nicht,
=12	=12
4r	.
16.ccn	trock-
32ccn	-net
8ccn	nicht,
=13	=13
8ccn	Tra2n-
16dd#	-en
16dd#	un-
8ee	-glu2ck-
16gn	-lich-
16gn	-er
=14	=14
8gn	Lie-
16f#	-be,
16b	un-
8b	-glu2ck-
16a	-lich-
16gn	-er
=15	=15
8gn	Lie-
[8f#	|
16f#]	|
16b	|
16a#	|
16an	-be!
=16	=16
16.g#	Trock-
32g#	-net
16b	nicht,
16a}	|}
4r	.
=17	=17
{16.dd#	{trock-
32dd#	-net
16ff#	nicht,
16ee	|
[4ggn	Tra2-
=18	=18
8ggn]	|
16ff#	-nen
16ee	un-
16dd#	-glu2ck-
16ee	|
16f#	-li-
16cc#	-cher
=19	=19
8e	Lie-
16g#	|
16f#	|
8e}	-be,}
8r	.
=20	=20
8r	.
16r	.
{16ee	{un-
16dd#	-glu2ck-
16ee	|
16f#	-li-
16cc#	-cher
=21	=21
16cc#	Lie-
8b	|
16d#	|
8e	-be!
8r	.
=22	=22
8.a	Trock-
32g#	-net
32f#	|
8e}	nicht.}
8r	.
*-	*-
